X:295
T:Tom Ward's Downfall
R:reel
M:4/4
L:1/8
K:Gmaj
A|BGGF GEDG|EDEG ABGE|DEGA ~B2Bd|ed^cd Bdgd|
BGGF GEDG|EDEG ABGE|DEGA ~B2Bd|egdc BGG:|
B|dggf gedg|eaag a2ga|bggb agef|gedc BGGB|
dggf gedg|eaag a2ga|bggb agef|gedc BGG:|

